common/src/main/resources/icons/actions/positions/none.svg

<svg xmlns="http://www.w3.org/2000/svg" width="16" height="16" fill="#2196F3" data-big="true" viewBox="0 0 24 24"><path d="M15 5h2V3h-2m0 18h2v-2h-2M11 5h2V3h-2m8 2h2V3h-2m0 6h2V7h-2m0 14h2v-2h-2m0-6h2v-2h-2m0 6h2v-2h-2M3 5h2V3H3m0 6h2V7H3m0 6h2v-2H3m0 6h2v-2H3m0 6h2v-2H3m8 2h2v-2h-2m-4 2h2v-2H7M7 5h2V3H7z"/></svg>

<!--
  - The MIT License (MIT)
  -
  - Copyright (c) 2015-2024 Elior "Mallowigi" Boukhobza
  -
  - Permission is hereby granted, free of charge, to any person obtaining a copy
  - of this software and associated documentation files (the "Software"), to deal
  - in the Software without restriction, including without limitation the rights
  - to use, copy, modify, merge, publish, distribute, sublicense, and/or sell
  - copies of the Software, and to permit persons to whom the Software is
  - furnished to do so, subject to the following conditions:
  -
  - The above copyright notice and this permission notice shall be included in all
  - copies or substantial portions of the Software.
  -
  - THE SOFTWARE IS PROVIDED "AS IS", WITHOUT WARRANTY OF ANY KIND, EXPRESS OR
  - IMPLIED, INCLUDING BUT NOT LIMITED TO THE WARRANTIES OF MERCHANTABILITY,
  - FITNESS FOR A PARTICULAR PURPOSE AND NONINFRINGEMENT. IN NO EVENT SHALL THE
  - AUTHORS OR COPYRIGHT HOLDERS BE LIABLE FOR ANY CLAIM, DAMAGES OR OTHER
  - LIABILITY, WHETHER IN AN ACTION OF CONTRACT, TORT OR OTHERWISE, ARISING FROM,
  - OUT OF OR IN CONNECTION WITH THE SOFTWARE OR THE USE OR OTHER DEALINGS IN THE
  - SOFTWARE.
  -->


<svg data-big="true" xmlns="http://www.w3.org/2000/svg" version="1.1" width="16px" height="16px" fill="#2196F3"
     viewBox="0 0 24 24">
  <path
    d="M15,5H17V3H15M15,21H17V19H15M11,5H13V3H11M19,5H21V3H19M19,9H21V7H19M19,21H21V19H19M19,13H21V11H19M19,17H21V15H19M3,5H5V3H3M3,9H5V7H3M3,13H5V11H3M3,17H5V15H3M3,21H5V19H3M11,21H13V19H11M7,21H9V19H7M7,5H9V3H7V5Z"/>
</svg>
